iconos/metadatos.svg

<?xml version="1.0" encoding="UTF-8" standalone="no"?>
<svg
   version="1.1"
   width="28"
   height="28"
   color-interpolation="linearRGB"
   id="svg78"
   sodipodi:docname="metadatos.svg"
   inkscape:version="1.2.2 (b0a8486541, 2022-12-01)"
   xmlns:inkscape="http://www.inkscape.org/namespaces/inkscape"
   xmlns:sodipodi="http://sodipodi.sourceforge.net/DTD/sodipodi-0.dtd"
   xmlns="http://www.w3.org/2000/svg"
   xmlns:svg="http://www.w3.org/2000/svg">
  <defs
     id="defs82" />
  <sodipodi:namedview
     id="namedview80"
     pagecolor="#ffffff"
     bordercolor="#000000"
     borderopacity="0.25"
     inkscape:showpageshadow="2"
     inkscape:pageopacity="0.0"
     inkscape:pagecheckerboard="0"
     inkscape:deskcolor="#d1d1d1"
     showgrid="false"
     inkscape:zoom="12.9375"
     inkscape:cx="21.256039"
     inkscape:cy="32"
     inkscape:window-width="1920"
     inkscape:window-height="1052"
     inkscape:window-x="0"
     inkscape:window-y="0"
     inkscape:window-maximized="1"
     inkscape:current-layer="svg78" />
  <g
     id="g76"
     transform="matrix(0.43412272,0,0,0.43412272,0.07729469,-0.16789133)">
    <path
       style="fill:#010101;fill-opacity:0.4549"
       d="m 18,62 h 6 l 8,-8 14,8 h 6 L 64,48 56,44 30,49 Z"
       id="path2" />
    <path
       style="fill:none;stroke:#000000;stroke-width:4"
       d="M 2,34 V 52 L 18,60 30,49 V 32 L 14,26 Z"
       id="path4" />
    <linearGradient
       id="gradient0"
       gradientUnits="userSpaceOnUse"
       x1="-1.04"
       y1="10.54"
       x2="19.870001"
       y2="8.1599998">
      <stop
         offset="0"
         stop-color="#44617e"
         id="stop6" />
      <stop
         offset="1"
         stop-color="#274b78"
         id="stop8" />
    </linearGradient>
    <path
       style="fill:url(#gradient0)"
       d="m 2,34 v 18 l 16,8 V 41 Z"
       id="path11" />
    <path
       style="fill:#0e2644"
       d="M 18,41 V 60 L 30,49 V 32 Z"
       id="path13" />
    <path
       style="fill:#020912"
       d="m 24,34 4,11 v -9 z"
       transform="translate(0,1)"
       id="path15" />
    <linearGradient
       id="gradient1"
       gradientUnits="userSpaceOnUse"
       x1="12.94"
       y1="-1.9299999"
       x2="52.060001"
       y2="14.45">
      <stop
         offset="0"
         stop-color="#5f80a1"
         id="stop17" />
      <stop
         offset="1"
         stop-color="#203e63"
         id="stop19" />
    </linearGradient>
    <path
       style="fill:url(#gradient1)"
       d="M 2,34 18,41 30,32 14,26 Z"
       id="path22" />
    <path
       style="fill:none;stroke:#000000;stroke-width:4"
       d="M 30,34 V 52 L 46,60 58,48 V 31 L 42,25 Z"
       id="path24" />
    <path
       style="fill:#385573"
       d="M 33,49 33.99,53.99 46,60 V 41 l -7.93,-3.16 z"
       id="path26" />
    <path
       style="fill:#0e2644"
       d="M 30,34 V 52 L 33.99,53.99 33,49 38.07,37.84 Z"
       id="path28" />
    <linearGradient
       id="gradient2"
       gradientUnits="userSpaceOnUse"
       x1="71.360001"
       y1="-3.3499999"
       x2="104.04"
       y2="22.42">
      <stop
         offset="0"
         stop-color="#0e2644"
         id="stop30" />
      <stop
         offset="1"
         stop-color="#1762ae"
         id="stop32" />
    </linearGradient>
    <path
       style="fill:url(#gradient2)"
       d="M 30,18 V 37 L 42,28 V 10 Z M 46,41 V 60 L 58,48 V 31 Z"
       id="path35" />
    <path
       style="fill:#466688"
       d="M 37.98,37.8 46,41 58,31 50,28 Z"
       id="path37" />
    <linearGradient
       id="gradient3"
       gradientUnits="userSpaceOnUse"
       x1="143.84"
       y1="41.93"
       x2="91.239998"
       y2="108.1">
      <stop
         offset="0"
         stop-color="#011830"
         id="stop39" />
      <stop
         offset="1"
         stop-color="#061629"
         id="stop41" />
    </linearGradient>
    <path
       style="fill:url(#gradient3)"
       d="M 30,34 37.98,37.8 50,28 42,25 Z"
       id="path44" />
    <path
       style="fill:none;stroke:#000000;stroke-width:4"
       d="m 14,12 v 18 l 16,7 12,-9 V 10 L 26,5 Z"
       id="path46" />
    <linearGradient
       id="gradient4"
       gradientUnits="userSpaceOnUse"
       x1="-19.870001"
       y1="-1.53"
       x2="5.48"
       y2="-26.290001">
      <stop
         offset="0"
         stop-color="#3e6690"
         id="stop48" />
      <stop
         offset="1"
         stop-color="#193e6a"
         id="stop50" />
    </linearGradient>
    <path
       style="fill:url(#gradient4)"
       d="m 14,12 v 18 l 16,7 V 18 Z"
       id="path53" />
    <linearGradient
       id="gradient5"
       gradientUnits="userSpaceOnUse"
       x1="30.5"
       y1="-22.809999"
       x2="56.009998"
       y2="-9.1300001">
      <stop
         offset="0"
         stop-color="#8094a9"
         id="stop55" />
      <stop
         offset="1"
         stop-color="#2c5280"
         id="stop57" />
    </linearGradient>
    <path
       style="fill:url(#gradient5)"
       d="M 14,12 30,18 42,10 26,5 Z"
       id="path60" />
    <linearGradient
       id="gradient6"
       gradientUnits="userSpaceOnUse"
       x1="53.009998"
       y1="-9.5500002"
       x2="69.940002"
       y2="3.4300001">
      <stop
         offset="0"
         stop-color="#081c34"
         id="stop62" />
      <stop
         offset="1"
         stop-color="#1d436b"
         id="stop64" />
    </linearGradient>
    <path
       style="fill:url(#gradient6)"
       d="M 30,18 V 37 L 42,28 V 10 Z"
       id="path67" />
    <linearGradient
       id="gradient7"
       gradientUnits="userSpaceOnUse"
       x1="-0.56"
       y1="2.27"
       x2="30.889999"
       y2="7.1300001">
      <stop
         offset="0"
         stop-color="#f6f6f6"
         id="stop69" />
      <stop
         offset="1"
         stop-color="#bab5b5"
         id="stop71" />
    </linearGradient>
  </g>
</svg>

<?xml version="1.0" encoding="UTF-8" standalone="no"?>
<svg
   version="1.1"
   width="64"
   height="64"
   color-interpolation="linearRGB"
   id="svg78"
   sodipodi:docname="metadatos.svg"
   inkscape:version="1.2.2 (b0a8486541, 2022-12-01)"
   xmlns:inkscape="http://www.inkscape.org/namespaces/inkscape"
   xmlns:sodipodi="http://sodipodi.sourceforge.net/DTD/sodipodi-0.dtd"
   xmlns="http://www.w3.org/2000/svg"
   xmlns:svg="http://www.w3.org/2000/svg">
  <defs
     id="defs82" />
  <sodipodi:namedview
     id="namedview80"
     pagecolor="#ffffff"
     bordercolor="#000000"
     borderopacity="0.25"
     inkscape:showpageshadow="2"
     inkscape:pageopacity="0.0"
     inkscape:pagecheckerboard="0"
     inkscape:deskcolor="#d1d1d1"
     showgrid="false"
     inkscape:zoom="12.9375"
     inkscape:cx="26.512077"
     inkscape:cy="32"
     inkscape:window-width="1920"
     inkscape:window-height="1008"
     inkscape:window-x="0"
     inkscape:window-y="0"
     inkscape:window-maximized="1"
     inkscape:current-layer="svg78" />
  <g
     id="g76">
    <path
       style="fill:#010101; fill-opacity:0.4549"
       d="M18 62H24L32 54L46 62H52L64 48L56 44L30 49L18 62z"
       id="path2" />
    <path
       style="fill:none; stroke:#000000; stroke-width:4"
       d="M2 34V52L18 60L30 49V32L14 26L2 34z"
       id="path4" />
    <linearGradient
       id="gradient0"
       gradientUnits="userSpaceOnUse"
       x1="-1.04"
       y1="10.54"
       x2="19.87"
       y2="8.16">
      <stop
         offset="0"
         stop-color="#44617e"
         id="stop6" />
      <stop
         offset="1"
         stop-color="#274b78"
         id="stop8" />
    </linearGradient>
    <path
       style="fill:url(#gradient0)"
       d="M2 34V52L18 60V41L2 34z"
       id="path11" />
    <path
       style="fill:#0e2644"
       d="M18 41V60L30 49V32L18 41z"
       id="path13" />
    <path
       style="fill:#020912"
       d="M24 34L28 45V36L24 34z"
       transform="matrix(1,0,0,1,0,1)"
       id="path15" />
    <linearGradient
       id="gradient1"
       gradientUnits="userSpaceOnUse"
       x1="12.94"
       y1="-1.93"
       x2="52.06"
       y2="14.45">
      <stop
         offset="0"
         stop-color="#5f80a1"
         id="stop17" />
      <stop
         offset="1"
         stop-color="#203e63"
         id="stop19" />
    </linearGradient>
    <path
       style="fill:url(#gradient1)"
       d="M2 34L18 41L30 32L14 26L2 34z"
       id="path22" />
    <path
       style="fill:none; stroke:#000000; stroke-width:4"
       d="M30 34V52L46 60L58 48V31L42 25L30 34z"
       id="path24" />
    <path
       style="fill:#385573"
       d="M33 49L33.99 53.99L46 60V41L38.07 37.84L33 49z"
       id="path26" />
    <path
       style="fill:#0e2644"
       d="M30 34V52L33.99 53.99L33 49L38.07 37.84L30 34z"
       id="path28" />
    <linearGradient
       id="gradient2"
       gradientUnits="userSpaceOnUse"
       x1="71.36"
       y1="-3.35"
       x2="104.04"
       y2="22.42">
      <stop
         offset="0"
         stop-color="#0e2644"
         id="stop30" />
      <stop
         offset="1"
         stop-color="#1762ae"
         id="stop32" />
    </linearGradient>
    <path
       style="fill:url(#gradient2)"
       d="M30 18V37L42 28V10L30 18z            M46 41V60L58 48V31L46 41z"
       id="path35" />
    <path
       style="fill:#466688"
       d="M37.98 37.8L46 41L58 31L50 28L37.98 37.8z"
       id="path37" />
    <linearGradient
       id="gradient3"
       gradientUnits="userSpaceOnUse"
       x1="143.84"
       y1="41.93"
       x2="91.24"
       y2="108.1">
      <stop
         offset="0"
         stop-color="#011830"
         id="stop39" />
      <stop
         offset="1"
         stop-color="#061629"
         id="stop41" />
    </linearGradient>
    <path
       style="fill:url(#gradient3)"
       d="M30 34L37.98 37.8L50 28L42 25L30 34z"
       id="path44" />
    <path
       style="fill:none; stroke:#000000; stroke-width:4"
       d="M14 12V30L30 37L42 28V10L26 5L14 12z"
       id="path46" />
    <linearGradient
       id="gradient4"
       gradientUnits="userSpaceOnUse"
       x1="-19.87"
       y1="-1.53"
       x2="5.48"
       y2="-26.29">
      <stop
         offset="0"
         stop-color="#3e6690"
         id="stop48" />
      <stop
         offset="1"
         stop-color="#193e6a"
         id="stop50" />
    </linearGradient>
    <path
       style="fill:url(#gradient4)"
       d="M14 12V30L30 37V18L14 12z"
       id="path53" />
    <linearGradient
       id="gradient5"
       gradientUnits="userSpaceOnUse"
       x1="30.5"
       y1="-22.81"
       x2="56.01"
       y2="-9.13">
      <stop
         offset="0"
         stop-color="#8094a9"
         id="stop55" />
      <stop
         offset="1"
         stop-color="#2c5280"
         id="stop57" />
    </linearGradient>
    <path
       style="fill:url(#gradient5)"
       d="M14 12L30 18L42 10L26 5L14 12z"
       id="path60" />
    <linearGradient
       id="gradient6"
       gradientUnits="userSpaceOnUse"
       x1="53.01"
       y1="-9.55"
       x2="69.94"
       y2="3.43">
      <stop
         offset="0"
         stop-color="#081c34"
         id="stop62" />
      <stop
         offset="1"
         stop-color="#1d436b"
         id="stop64" />
    </linearGradient>
    <path
       style="fill:url(#gradient6)"
       d="M30 18V37L42 28V10L30 18z"
       id="path67" />
    <linearGradient
       id="gradient7"
       gradientUnits="userSpaceOnUse"
       x1="-0.56"
       y1="2.27"
       x2="30.89"
       y2="7.13">
      <stop
         offset="0"
         stop-color="#f6f6f6"
         id="stop69" />
      <stop
         offset="1"
         stop-color="#bab5b5"
         id="stop71" />
    </linearGradient>
  </g>
</svg>
